static/img/in-field/switch-icon-right-dark.svg

<svg fill="none" height="57" viewBox="0 0 118 57" width="118" xmlns="http://www.w3.org/2000/svg"><rect fill="#019aeb" height="32" rx="16" transform="matrix(1 0 0 -1 7 44.3332)" width="64"/><g fill="#fff"><path d="m68 28.3332c0 7.1797-5.8203 13-13 13s-13-5.8203-13-13 5.8203-13 13-13 13 5.8203 13 13z"/><path d="m94.0001 15.9999c-.5894 0-1.149.1171-1.6585.3284-.5102.2116-1.0952-.0305-1.3068-.5407-.2115-.5101.0305-1.0952.5407-1.3068.7481-.3102 1.5677-.4809 2.4246-.4809h2c.5523 0 1 .4477 1 1s-.4477 1-1 1z"/><path d="m99.0001 14.9999c0-.5523.4477-1 .9999-1h4c.552 0 1 .4477 1 1s-.448 1-1 1h-4c-.5522 0-.9999-.4477-.9999-1z"/><path d="m107 14.9999c0-.5523.448-1 1-1h2c.857 0 1.677.1707 2.425.4809.51.2116.752.7967.54 1.3068-.211.5102-.796.7523-1.306.5407-.51-.2113-1.07-.3284-1.659-.3284h-2c-.552 0-1-.4477-1-1z"/><path d="m89.4545 17.3679c.5102.2116.7522.7967.5407 1.3068-.2113.5096-.3285 1.0691-.3285 1.6585v2c0 .5523-.4477 1-1 1-.5522 0-1-.4477-1-1v-2c0-.8569.1708-1.6764.481-2.4246.2116-.5101.7966-.7522 1.3068-.5407z"/><path d="m114.546 17.368c.51-.2116 1.095.0305 1.306.5406.311.7482.481 1.5677.481 2.4246v2c0 .5523-.447 1-1 1-.552 0-1-.4477-1-1v-2c0-.5894-.117-1.1489-.328-1.6585-.212-.5101.031-1.0952.541-1.3067z"/><path d="m88.6667 25.3332c.5523 0 1 .4477 1 1v4c0 .5523-.4477 1-1 1-.5522 0-1-.4477-1-1v-4c0-.5523.4478-1 1-1z"/><path d="m115.333 25.3332c.553 0 1 .4477 1 1v4c0 .5523-.447 1-1 1-.552 0-1-.4477-1-1v-4c0-.5523.448-1 1-1z"/><path d="m88.6667 33.3332c.5523 0 1 .4477 1 1v2c0 .5894.1172 1.1489.3285 1.6585.2115.5102-.0305 1.0952-.5407 1.3068-.5102.2115-1.0952-.0305-1.3068-.5407-.3102-.7481-.481-1.5677-.481-2.4246v-2c0-.5523.4478-1 1-1z"/><path d="m115.333 33.3332c.553 0 1 .4477 1 1v2c0 .8569-.17 1.6765-.481 2.4246-.211.5102-.796.7522-1.306.5407-.51-.2116-.753-.7966-.541-1.3068.211-.5096.328-1.0691.328-1.6585v-2c0-.5523.448-1 1-1z"/><path d="m91.0348 40.8788c.2116-.5102.7966-.7522 1.3068-.5407.5095.2113 1.0691.3284 1.6585.3284h2c.5523 0 1 .4478 1 1 0 .5523-.4477 1-1 1h-2c-.8569 0-1.6765-.1707-2.4246-.4809-.5102-.2116-.7522-.7966-.5407-1.3068z"/><path d="m112.965 40.8788c.212.5102-.03 1.0952-.54 1.3068-.748.3102-1.568.4809-2.425.4809h-2c-.552 0-1-.4477-1-1 0-.5522.448-1 1-1h2c.589 0 1.149-.1171 1.659-.3284.51-.2115 1.095.0305 1.306.5407z"/><path d="m99.0001 41.6665c0-.5522.4477-1 .9999-1h4c.552 0 1 .4478 1 1 0 .5523-.448 1-1 1h-4c-.5522 0-.9999-.4477-.9999-1z"/><path d="m113.374 18.4545c.39-.3905.39-1.0237 0-1.4142-.391-.3905-1.024-.3905-1.414 0l-1.329 1.3283c-.39.3905-.39 1.0237 0 1.4142.391.3905 1.024.3905 1.415 0z"/><path d="m109.389 22.4394c.391-.3906.391-1.0237 0-1.4142-.391-.3906-1.024-.3906-1.414 0l-2.657 2.6565c-.39.3905-.39 1.0237 0 1.4142.391.3905 1.024.3905 1.414 0z"/><path d="m104.076 27.7525c.39-.3905.39-1.0237 0-1.4142-.391-.3906-1.024-.3906-1.414 0l-.662.6616-.662-.6616c-.39-.3906-1.023-.3906-1.4137 0-.3906.3905-.3906 1.0237 0 1.4142l.6617.6616-.581.5807c-.3904.3905-.3904 1.0237 0 1.4142.391.3906 1.024.3906 1.414 0l.581-.5807.581.5807c.39.3906 1.024.3906 1.414 0 .391-.3905.391-1.0237 0-1.4142l-.581-.5807z"/><path d="m98.7628 33.0656c.3905-.3905.3905-1.0237 0-1.4142s-1.0237-.3905-1.4142 0l-2.6566 2.6565c-.3905.3906-.3905 1.0237 0 1.4143.3905.3905 1.0237.3905 1.4142 0z"/><path d="m93.4497 38.3787c.3905-.3905.3905-1.0237 0-1.4142s-1.0237-.3905-1.4142 0l-1.3283 1.3283c-.3905.3905-.3905 1.0237 0 1.4142s1.0237.3905 1.4142 0z"/><path d="m111.879 39.707c.39.3905 1.023.3905 1.414 0s.391-1.0237 0-1.4142l-1.328-1.3283c-.391-.3905-1.024-.3905-1.415 0-.39.3905-.39 1.0237 0 1.4142z"/><path d="m107.894 35.7222c.39.3905 1.024.3905 1.414 0 .391-.3906.391-1.0237 0-1.4143l-2.656-2.6565c-.391-.3905-1.024-.3905-1.415 0-.39.3905-.39 1.0237 0 1.4142z"/><path d="m97.2677 25.0959c.3905.3905 1.0237.3905 1.4142 0s.3905-1.0237 0-1.4142l-2.6565-2.6565c-.3906-.3906-1.0237-.3906-1.4143 0-.3905.3905-.3905 1.0236 0 1.4142z"/><path d="m91.9546 19.7828c.3905.3905 1.0237.3905 1.4142 0s.3905-1.0237 0-1.4142l-1.3283-1.3283c-.3905-.3905-1.0237-.3905-1.4142 0s-.3905 1.0237 0 1.4142z"/><path d="m98.0747 21.5186c.3971-.1203.8194-.1854 1.2587-.1854h.9996c.553 0 1-.4477 1-1s-.447-1-1-1h-.9996c-.6379 0-1.2555.0946-1.8387.2713-.5285.1601-.8272.7184-.667 1.247.1601.5286.7184.8272 1.247.6671z"/><path d="m103.667 19.3332c-.553 0-1 .4477-1 1s.447 1 1 1h1c.439 0 .861.0651 1.259.1854.528.1601 1.086-.1385 1.246-.6671.161-.5286-.138-1.0869-.667-1.247-.583-.1767-1.2-.2713-1.838-.2713z"/><path d="m95.1855 24.4078c.1601-.5286-.1386-1.0869-.6671-1.247-.5286-.1601-1.0869.1385-1.247.6671-.1767.5831-.2713 1.2007-.2713 1.8386v1c0 .5523.4477 1 1 1s1-.4477 1-1v-1c0-.4393.065-.8616.1854-1.2587z"/><path d="m110.729 23.8279c-.16-.5286-.719-.8272-1.247-.6671-.529.1601-.827.7184-.667 1.247.12.3971.185.8194.185 1.2587v1c0 .5523.448 1 1 1s1-.4477 1-1v-1c0-.6379-.095-1.2555-.271-1.8386z"/><path d="m95.0001 29.9999c0-.5523-.4477-1-1-1s-1 .4477-1 1v1c0 .6379.0946 1.2555.2713 1.8386.1601.5286.7184.8273 1.247.6671.5285-.1601.8272-.7184.6671-1.247-.1204-.3971-.1854-.8194-.1854-1.2587z"/><path d="m111 29.9999c0-.5523-.448-1-1-1s-1 .4477-1 1v1c0 .4393-.065.8616-.185 1.2587-.16.5286.138 1.0869.667 1.247.528.1602 1.087-.1385 1.247-.6671.176-.5831.271-1.2007.271-1.8386z"/><path d="m98.0747 35.1478c-.5286-.1601-1.0869.1386-1.247.6671-.1602.5286.1385 1.0869.667 1.247.5832.1767 1.2008.2713 1.8387.2713h.9996c.553 0 1-.4477 1-1s-.447-1-1-1h-.9996c-.4393 0-.8616-.065-1.2587-.1854z"/><path d="m106.505 37.0619c.529-.1601.828-.7184.667-1.247-.16-.5285-.718-.8272-1.246-.6671-.398.1204-.82.1854-1.259.1854h-1c-.553 0-1 .4477-1 1s.447 1 1 1h1c.638 0 1.255-.0946 1.838-.2713z"/></g></svg>

<svg width="118" height="57" viewBox="0 0 118 57" fill="none" xmlns="http://www.w3.org/2000/svg">
<rect width="64" height="32" rx="16" transform="matrix(1 0 0 -1 7 44.3332)" fill="#019AEB"/>
<path d="M68 28.3332C68 35.5129 62.1797 41.3332 55 41.3332C47.8203 41.3332 42 35.5129 42 28.3332C42 21.1535 47.8203 15.3332 55 15.3332C62.1797 15.3332 68 21.1535 68 28.3332Z" fill="#fff"/>
<path d="M94.0001 15.9999C93.4107 15.9999 92.8511 16.117 92.3416 16.3283C91.8314 16.5399 91.2464 16.2978 91.0348 15.7876C90.8233 15.2775 91.0653 14.6924 91.5755 14.4808C92.3236 14.1706 93.1432 13.9999 94.0001 13.9999H96.0001C96.5524 13.9999 97.0001 14.4476 97.0001 14.9999C97.0001 15.5522 96.5524 15.9999 96.0001 15.9999H94.0001Z" fill="#fff"/>
<path d="M99.0001 14.9999C99.0001 14.4476 99.4478 13.9999 100 13.9999H104C104.552 13.9999 105 14.4476 105 14.9999C105 15.5522 104.552 15.9999 104 15.9999H100C99.4478 15.9999 99.0001 15.5522 99.0001 14.9999Z" fill="#fff"/>
<path d="M107 14.9999C107 14.4476 107.448 13.9999 108 13.9999H110C110.857 13.9999 111.677 14.1706 112.425 14.4808C112.935 14.6924 113.177 15.2775 112.965 15.7876C112.754 16.2978 112.169 16.5399 111.659 16.3283C111.149 16.117 110.589 15.9999 110 15.9999H108C107.448 15.9999 107 15.5522 107 14.9999Z" fill="#fff"/>
<path d="M89.4545 17.3679C89.9647 17.5795 90.2067 18.1646 89.9952 18.6747C89.7839 19.1843 89.6667 19.7438 89.6667 20.3332V22.3332C89.6667 22.8855 89.219 23.3332 88.6667 23.3332C88.1145 23.3332 87.6667 22.8855 87.6667 22.3332V20.3332C87.6667 19.4763 87.8375 18.6568 88.1477 17.9086C88.3593 17.3985 88.9443 17.1564 89.4545 17.3679Z" fill="#fff"/>
<path d="M114.546 17.368C115.056 17.1564 115.641 17.3985 115.852 17.9086C116.163 18.6568 116.333 19.4763 116.333 20.3332V22.3332C116.333 22.8855 115.886 23.3332 115.333 23.3332C114.781 23.3332 114.333 22.8855 114.333 22.3332V20.3332C114.333 19.7438 114.216 19.1843 114.005 18.6747C113.793 18.1646 114.036 17.5795 114.546 17.368Z" fill="#fff"/>
<path d="M88.6667 25.3332C89.219 25.3332 89.6667 25.7809 89.6667 26.3332V30.3332C89.6667 30.8855 89.219 31.3332 88.6667 31.3332C88.1145 31.3332 87.6667 30.8855 87.6667 30.3332V26.3332C87.6667 25.7809 88.1145 25.3332 88.6667 25.3332Z" fill="#fff"/>
<path d="M115.333 25.3332C115.886 25.3332 116.333 25.7809 116.333 26.3332V30.3332C116.333 30.8855 115.886 31.3332 115.333 31.3332C114.781 31.3332 114.333 30.8855 114.333 30.3332V26.3332C114.333 25.7809 114.781 25.3332 115.333 25.3332Z" fill="#fff"/>
<path d="M88.6667 33.3332C89.219 33.3332 89.6667 33.7809 89.6667 34.3332V36.3332C89.6667 36.9226 89.7839 37.4821 89.9952 37.9917C90.2067 38.5019 89.9647 39.0869 89.4545 39.2985C88.9443 39.51 88.3593 39.268 88.1477 38.7578C87.8375 38.0097 87.6667 37.1901 87.6667 36.3332V34.3332C87.6667 33.7809 88.1145 33.3332 88.6667 33.3332Z" fill="#fff"/>
<path d="M115.333 33.3332C115.886 33.3332 116.333 33.7809 116.333 34.3332V36.3332C116.333 37.1901 116.163 38.0097 115.852 38.7578C115.641 39.268 115.056 39.51 114.546 39.2985C114.036 39.0869 113.793 38.5019 114.005 37.9917C114.216 37.4821 114.333 36.9226 114.333 36.3332V34.3332C114.333 33.7809 114.781 33.3332 115.333 33.3332Z" fill="#fff"/>
<path d="M91.0348 40.8788C91.2464 40.3686 91.8314 40.1266 92.3416 40.3381C92.8511 40.5494 93.4107 40.6665 94.0001 40.6665H96.0001C96.5524 40.6665 97.0001 41.1143 97.0001 41.6665C97.0001 42.2188 96.5524 42.6665 96.0001 42.6665H94.0001C93.1432 42.6665 92.3236 42.4958 91.5755 42.1856C91.0653 41.974 90.8233 41.389 91.0348 40.8788Z" fill="#fff"/>
<path d="M112.965 40.8788C113.177 41.389 112.935 41.974 112.425 42.1856C111.677 42.4958 110.857 42.6665 110 42.6665H108C107.448 42.6665 107 42.2188 107 41.6665C107 41.1143 107.448 40.6665 108 40.6665H110C110.589 40.6665 111.149 40.5494 111.659 40.3381C112.169 40.1266 112.754 40.3686 112.965 40.8788Z" fill="#fff"/>
<path d="M99.0001 41.6665C99.0001 41.1143 99.4478 40.6665 100 40.6665H104C104.552 40.6665 105 41.1143 105 41.6665C105 42.2188 104.552 42.6665 104 42.6665H100C99.4478 42.6665 99.0001 42.2188 99.0001 41.6665Z" fill="#fff"/>
<path d="M113.374 18.4545C113.764 18.064 113.764 17.4308 113.374 17.0403C112.983 16.6498 112.35 16.6498 111.96 17.0403L110.631 18.3686C110.241 18.7591 110.241 19.3923 110.631 19.7828C111.022 20.1733 111.655 20.1733 112.046 19.7828L113.374 18.4545Z" fill="#fff"/>
<path d="M109.389 22.4394C109.78 22.0488 109.78 21.4157 109.389 21.0252C108.998 20.6346 108.365 20.6346 107.975 21.0252L105.318 23.6817C104.928 24.0722 104.928 24.7054 105.318 25.0959C105.709 25.4864 106.342 25.4864 106.732 25.0959L109.389 22.4394Z" fill="#fff"/>
<path d="M104.076 27.7525C104.466 27.362 104.466 26.7288 104.076 26.3383C103.685 25.9477 103.052 25.9477 102.662 26.3383L102 26.9999L101.338 26.3383C100.948 25.9477 100.315 25.9477 99.9243 26.3383C99.5337 26.7288 99.5337 27.362 99.9243 27.7525L100.586 28.4141L100.005 28.9948C99.6146 29.3853 99.6146 30.0185 100.005 30.409C100.396 30.7996 101.029 30.7996 101.419 30.409L102 29.8283L102.581 30.409C102.971 30.7996 103.605 30.7996 103.995 30.409C104.386 30.0185 104.386 29.3853 103.995 28.9948L103.414 28.4141L104.076 27.7525Z" fill="#fff"/>
<path d="M98.7628 33.0656C99.1533 32.6751 99.1533 32.0419 98.7628 31.6514C98.3723 31.2609 97.7391 31.2609 97.3486 31.6514L94.692 34.3079C94.3015 34.6985 94.3015 35.3316 94.692 35.7222C95.0825 36.1127 95.7157 36.1127 96.1062 35.7222L98.7628 33.0656Z" fill="#fff"/>
<path d="M93.4497 38.3787C93.8402 37.9882 93.8402 37.355 93.4497 36.9645C93.0592 36.574 92.426 36.574 92.0355 36.9645L90.7072 38.2928C90.3167 38.6833 90.3167 39.3165 90.7072 39.707C91.0977 40.0975 91.7309 40.0975 92.1214 39.707L93.4497 38.3787Z" fill="#fff"/>
<path d="M111.879 39.707C112.269 40.0975 112.902 40.0975 113.293 39.707C113.684 39.3165 113.684 38.6833 113.293 38.2928L111.965 36.9645C111.574 36.574 110.941 36.574 110.55 36.9645C110.16 37.355 110.16 37.9882 110.55 38.3787L111.879 39.707Z" fill="#fff"/>
<path d="M107.894 35.7222C108.284 36.1127 108.918 36.1127 109.308 35.7222C109.699 35.3316 109.699 34.6985 109.308 34.3079L106.652 31.6514C106.261 31.2609 105.628 31.2609 105.237 31.6514C104.847 32.0419 104.847 32.6751 105.237 33.0656L107.894 35.7222Z" fill="#fff"/>
<path d="M97.2677 25.0959C97.6582 25.4864 98.2914 25.4864 98.6819 25.0959C99.0724 24.7054 99.0724 24.0722 98.6819 23.6817L96.0254 21.0252C95.6348 20.6346 95.0017 20.6346 94.6111 21.0252C94.2206 21.4157 94.2206 22.0488 94.6111 22.4394L97.2677 25.0959Z" fill="#fff"/>
<path d="M91.9546 19.7828C92.3451 20.1733 92.9783 20.1733 93.3688 19.7828C93.7593 19.3923 93.7593 18.7591 93.3688 18.3686L92.0405 17.0403C91.65 16.6498 91.0168 16.6498 90.6263 17.0403C90.2358 17.4308 90.2358 18.064 90.6263 18.4545L91.9546 19.7828Z" fill="#fff"/>
<path d="M98.0747 21.5186C98.4718 21.3983 98.8941 21.3332 99.3334 21.3332H100.333C100.886 21.3332 101.333 20.8855 101.333 20.3332C101.333 19.7809 100.886 19.3332 100.333 19.3332H99.3334C98.6955 19.3332 98.0779 19.4278 97.4947 19.6045C96.9662 19.7646 96.6675 20.3229 96.8277 20.8515C96.9878 21.3801 97.5461 21.6787 98.0747 21.5186Z" fill="#fff"/>
<path d="M103.667 19.3332C103.114 19.3332 102.667 19.7809 102.667 20.3332C102.667 20.8855 103.114 21.3332 103.667 21.3332H104.667C105.106 21.3332 105.528 21.3983 105.926 21.5186C106.454 21.6787 107.012 21.3801 107.172 20.8515C107.333 20.3229 107.034 19.7646 106.505 19.6045C105.922 19.4278 105.305 19.3332 104.667 19.3332H103.667Z" fill="#fff"/>
<path d="M95.1855 24.4078C95.3456 23.8792 95.0469 23.3209 94.5184 23.1608C93.9898 23.0007 93.4315 23.2993 93.2714 23.8279C93.0947 24.411 93.0001 25.0286 93.0001 25.6665V26.6665C93.0001 27.2188 93.4478 27.6665 94.0001 27.6665C94.5524 27.6665 95.0001 27.2188 95.0001 26.6665V25.6665C95.0001 25.2272 95.0651 24.8049 95.1855 24.4078Z" fill="#fff"/>
<path d="M110.729 23.8279C110.569 23.2993 110.01 23.0007 109.482 23.1608C108.953 23.3209 108.655 23.8792 108.815 24.4078C108.935 24.8049 109 25.2272 109 25.6665V26.6665C109 27.2188 109.448 27.6665 110 27.6665C110.552 27.6665 111 27.2188 111 26.6665V25.6665C111 25.0286 110.905 24.411 110.729 23.8279Z" fill="#fff"/>
<path d="M95.0001 29.9999C95.0001 29.4476 94.5524 28.9999 94.0001 28.9999C93.4478 28.9999 93.0001 29.4476 93.0001 29.9999V30.9999C93.0001 31.6378 93.0947 32.2554 93.2714 32.8385C93.4315 33.3671 93.9898 33.6658 94.5184 33.5056C95.0469 33.3455 95.3456 32.7872 95.1855 32.2586C95.0651 31.8615 95.0001 31.4392 95.0001 30.9999V29.9999Z" fill="#fff"/>
<path d="M111 29.9999C111 29.4476 110.552 28.9999 110 28.9999C109.448 28.9999 109 29.4476 109 29.9999V30.9999C109 31.4392 108.935 31.8615 108.815 32.2586C108.655 32.7872 108.953 33.3455 109.482 33.5056C110.01 33.6658 110.569 33.3671 110.729 32.8385C110.905 32.2554 111 31.6378 111 30.9999V29.9999Z" fill="#fff"/>
<path d="M98.0747 35.1478C97.5461 34.9877 96.9878 35.2864 96.8277 35.8149C96.6675 36.3435 96.9662 36.9018 97.4947 37.0619C98.0779 37.2386 98.6955 37.3332 99.3334 37.3332H100.333C100.886 37.3332 101.333 36.8855 101.333 36.3332C101.333 35.7809 100.886 35.3332 100.333 35.3332H99.3334C98.8941 35.3332 98.4718 35.2682 98.0747 35.1478Z" fill="#fff"/>
<path d="M106.505 37.0619C107.034 36.9018 107.333 36.3435 107.172 35.8149C107.012 35.2864 106.454 34.9877 105.926 35.1478C105.528 35.2682 105.106 35.3332 104.667 35.3332H103.667C103.114 35.3332 102.667 35.7809 102.667 36.3332C102.667 36.8855 103.114 37.3332 103.667 37.3332H104.667C105.305 37.3332 105.922 37.2386 106.505 37.0619Z" fill="#fff"/>
</svg>
